clients/portal/components/icon/svgs/settings.svg

<svg width="24" height="24" viewBox="0 0 24 24" fill="none" xmlns="http://www.w3.org/2000/svg">
<path d="M19.4298 12.98C19.4698 12.66 19.4998 12.34 19.4998 12C19.4998 11.66 19.4698 11.34 19.4298 11.02L21.5398 9.37C21.7298 9.22 21.7798 8.95 21.6598 8.73L19.6598 5.27C19.5698 5.11 19.3998 5.02 19.2198 5.02C19.1598 5.02 19.0998 5.03 19.0498 5.05L16.5598 6.05C16.0398 5.65 15.4798 5.32 14.8698 5.07L14.4898 2.42C14.4598 2.18 14.2498 2 13.9998 2H9.99984C9.74984 2 9.53984 2.18 9.50984 2.42L9.12984 5.07C8.51984 5.32 7.95984 5.66 7.43984 6.05L4.94984 5.05C4.88984 5.03 4.82984 5.02 4.76984 5.02C4.59984 5.02 4.42984 5.11 4.33984 5.27L2.33984 8.73C2.20984 8.95 2.26984 9.22 2.45984 9.37L4.56984 11.02C4.52984 11.34 4.49984 11.67 4.49984 12C4.49984 12.33 4.52984 12.66 4.56984 12.98L2.45984 14.63C2.26984 14.78 2.21984 15.05 2.33984 15.27L4.33984 18.73C4.42984 18.89 4.59984 18.98 4.77984 18.98C4.83984 18.98 4.89984 18.97 4.94984 18.95L7.43984 17.95C7.95984 18.35 8.51984 18.68 9.12984 18.93L9.50984 21.58C9.53984 21.82 9.74984 22 9.99984 22H13.9998C14.2498 22 14.4598 21.82 14.4898 21.58L14.8698 18.93C15.4798 18.68 16.0398 18.34 16.5598 17.95L19.0498 18.95C19.1098 18.97 19.1698 18.98 19.2298 18.98C19.3998 18.98 19.5698 18.89 19.6598 18.73L21.6598 15.27C21.7798 15.05 21.7298 14.78 21.5398 14.63L19.4298 12.98ZM17.4498 11.27C17.4898 11.58 17.4998 11.79 17.4998 12C17.4998 12.21 17.4798 12.43 17.4498 12.73L17.3098 13.86L18.1998 14.56L19.2798 15.4L18.5798 16.61L17.3098 16.1L16.2698 15.68L15.3698 16.36C14.9398 16.68 14.5298 16.92 14.1198 17.09L13.0598 17.52L12.8998 18.65L12.6998 20H11.2998L11.1098 18.65L10.9498 17.52L9.88984 17.09C9.45984 16.91 9.05984 16.68 8.65984 16.38L7.74984 15.68L6.68984 16.11L5.41984 16.62L4.71984 15.41L5.79984 14.57L6.68984 13.87L6.54984 12.74C6.51984 12.43 6.49984 12.2 6.49984 12C6.49984 11.8 6.51984 11.57 6.54984 11.27L6.68984 10.14L5.79984 9.44L4.71984 8.6L5.41984 7.39L6.68984 7.9L7.72984 8.32L8.62984 7.64C9.05984 7.32 9.46984 7.08 9.87984 6.91L10.9398 6.48L11.0998 5.35L11.2998 4H12.6898L12.8798 5.35L13.0398 6.48L14.0998 6.91C14.5298 7.09 14.9298 7.32 15.3298 7.62L16.2398 8.32L17.2998 7.89L18.5698 7.38L19.2698 8.59L18.1998 9.44L17.3098 10.14L17.4498 11.27ZM11.9998 8C9.78984 8 7.99984 9.79 7.99984 12C7.99984 14.21 9.78984 16 11.9998 16C14.2098 16 15.9998 14.21 15.9998 12C15.9998 9.79 14.2098 8 11.9998 8ZM11.9998 14C10.8998 14 9.99984 13.1 9.99984 12C9.99984 10.9 10.8998 10 11.9998 10C13.0998 10 13.9998 10.9 13.9998 12C13.9998 13.1 13.0998 14 11.9998 14Z" fill="#475569"/>
</svg>

<svg xmlns="http://www.w3.org/2000/svg" height="24" viewBox="0 0 24 24" width="24"><path d="M0 0h24v24H0V0z" fill="currentColor"/><path d="M19.43 12.98c.04-.32.07-.64.07-.98 0-.34-.03-.66-.07-.98l2.11-1.65c.19-.15.24-.42.12-.64l-2-3.46c-.09-.16-.26-.25-.44-.25-.06 0-.12.01-.17.03l-2.49 1c-.52-.4-1.08-.73-1.69-.98l-.38-2.65C14.46 2.18 14.25 2 14 2h-4c-.25 0-.46.18-.49.42l-.38 2.65c-.61.25-1.17.59-1.69.98l-2.49-1c-.06-.02-.12-.03-.18-.03-.17 0-.34.09-.43.25l-2 3.46c-.13.22-.07.49.12.64l2.11 1.65c-.04.32-.07.65-.07.98 0 .33.03.66.07.98l-2.11 1.65c-.19.15-.24.42-.12.64l2 3.46c.09.16.26.25.44.25.06 0 .12-.01.17-.03l2.49-1c.52.4 1.08.73 1.69.98l.38 2.65c.03.24.24.42.49.42h4c.25 0 .46-.18.49-.42l.38-2.65c.61-.25 1.17-.59 1.69-.98l2.49 1c.06.02.12.03.18.03.17 0 .34-.09.43-.25l2-3.46c.12-.22.07-.49-.12-.64l-2.11-1.65zm-1.98-1.71c.04.31.05.52.05.73 0 .21-.02.43-.05.73l-.14 1.13.89.7 1.08.84-.7 1.21-1.27-.51-1.04-.42-.9.68c-.43.32-.84.56-1.25.73l-1.06.43-.16 1.13-.2 1.35h-1.4l-.19-1.35-.16-1.13-1.06-.43c-.43-.18-.83-.41-1.23-.71l-.91-.7-1.06.43-1.27.51-.7-1.21 1.08-.84.89-.7-.14-1.13c-.03-.31-.05-.54-.05-.74s.02-.43.05-.73l.14-1.13-.89-.7-1.08-.84.7-1.21 1.27.51 1.04.42.9-.68c.43-.32.84-.56 1.25-.73l1.06-.43.16-1.13.2-1.35h1.39l.19 1.35.16 1.13 1.06.43c.43.18.83.41 1.23.71l.91.7 1.06-.43 1.27-.51.7 1.21-1.07.85-.89.7.14 1.13zM12 8c-2.21 0-4 1.79-4 4s1.79 4 4 4 4-1.79 4-4-1.79-4-4-4zm0 6c-1.1 0-2-.9-2-2s.9-2 2-2 2 .9 2 2-.9 2-2 2z"/></svg>
